src/resources/icons-ec/src/all/livestreaming.svg

<?xml version="1.0" encoding="UTF-8"?>
<svg width="48px" height="48px" viewBox="0 0 48 48" version="1.1" xmlns="http://www.w3.org/2000/svg" xmlns:xlink="http://www.w3.org/1999/xlink">
    <title>EC/Icons/General/2XL_48x48px/Icon-Livestreaming</title>
    <defs>
        <path d="M2,6 L2,16 L6,16 L6,10 L42,10 L42,38 L28,38 L28,42 L46,42 L46,6 L2,6 Z M2,35.9999999 L2,41.9999999 L8,41.9999999 C8,38.6 5.40000001,35.9999999 2,35.9999999 L2,35.9999999 Z M2,28 L2,32 C7.60000001,32 12,36.4 12,42 L16,42 C16,34.1999999 9.80000001,28 2,28 L2,28 Z M2,20 L2,24 C12,24 20,32 20,42 L24,42 C24,29.8000001 14.2,20 2,20 L2,20 Z" id="path-1"></path>
    </defs>
    <g id="EC/Icons/General/2XL_48x48px/Icon-Livestreaming" stroke="none" stroke-width="1">
        <mask id="mask-2">
            <use xlink:href="#path-1"></use>
        </mask>
        <use id="Livestreaming" xlink:href="#path-1"></use>
    </g>
</svg>

<?xml version="1.0" encoding="UTF-8" ?>
<svg xmlns="http://www.w3.org/2000/svg" viewBox="0 0 48 48"><defs><style
    >.cls-1{fill:none;}.cls-2{fill-rule:evenodd;}</style></defs><g
    id="transparant_bg"
  ><rect class="cls-1" width="48" height="48" /></g><g id="Layer_1"><path
      class="cls-2"
      d="M2,6v10H6v-6H42v28h-14v4h18V6H2Zm0,30v6h6c0-3.4-2.6-6-6-6Zm0-8v4c5.6,0,10,4.4,10,10h4c0-7.8-6.2-14-14-14Zm0-8v4c10,0,18,8,18,18h4c0-12.2-9.8-22-22-22Z"
    /></g></svg>
